icons/knex.svg

<svg height="232" viewBox="0 0 233 232" width="233" xmlns="http://www.w3.org/2000/svg"><path d="m130.400002 231c-1.2-.5-2.9-2.699997-3.8-5-.9-2.199997-3.7-8.599997-6.3-14-5.4-11.599997-4.4-12.099997-12.2 5.5-3 6.600003-5.5 12.100003-5.6 12.300003-.1.199997-1.4.5-2.8000005.8-3.0000001.5-9.7000002-4.7-9.7000002-7.5 0-.9 2.0000001-6.3 4.4000001-12.100003l4.3000001-10.599997-1.5000001-4.7-1.5-4.8 4.2000001-4.3 4.2000005-4.3-6.2000005-1.7c-6.3000001-1.7-14.4000003-5.4-19.1000003-8.8l-2.8000001-1.9v6.4 6.3l-4.4 2.2c-4.1000001 2.1-4.6000001 2.8-9.1000002 13.6-3 7.2-5.5000001 11.599997-6.5000001 11.9-2.8.699997-9.1000001-.1-10.6000001-1.4-2.1000001-1.8-1.8000001-3.400003 3.7-18.2 2.9000001-7.6 5.0000001-14 4.7000001-14.200003-.2-.199997-6.4000001 1.800003-13.8000002 4.5-7.3000001 2.800003-14.1000002 5-15.0000002 5-3.3000001 0-5.6000001-5.099997-4.6000001-10.399997.6-2.9 1.4-3.5 11.9000002-7.900001 10.8000001-4.6 11.5000002-5 13.5000002-9.3l2.2-4.400002h6.0000001 6.0000001l-3.4000001-6.5c-3-5.5-4.3-9.099998-7.3000001-19.399998-.2-1-1.7-.2-4.6 2.7l-4.3000001 4.199998-4.7000001-1.599998-4.6-1.6-11.5000002 4.699998-11.40000018 4.700002-3.10000004-2.3c-3.10000005-2.3-5.00000008-6.2-4.40000007-9 .3-1 5.80000009-4.1 14.40000019-8 7.6000001-3.400002 13.9000002-6.5 13.9000002-6.8s-5.6000001-3-12.3000002-6-13.20000015-6-14.40000017-6.8c-3.90000005-2.300002-2.40000003-8.6000006 2.70000004-11.7000006 2.80000005-1.6000014 3.10000005-1.6000014 14.10000023 2.8999986l11.2000002 4.5 5.1-1.5 5.1000001-1.5 4.2000001 4.6000015 4.2 4.7000005 1-4.4000005c1.6000001-6.2000001 5.0000001-14.6000002 8.2000002-20.0000003l2.7-4.6000001-5.8000001.4-5.8000001.4-2.8-5.1000011c-1.5-2.699999-3.1000001-5-3.7000001-5-.5 0-2.3-.699999-4-1.5-1.8000001-.7999991-6.3000001-2.7999991-10.2000002-4.3999991-6.4000001-2.7-7.0000001-3.2000001-7.5000001-6.3000001-.3-1.8000008-.2-4.5000001.3-6.1000001 1.7-5.1000001 3.3000001-5.1000001 18.8000003.7 7.9000001 3.0000001 14.5000002 5.3000001 14.6000002 5.2000001.2-.1000008-2.2-6.9000001-5.3000001-15.0000002-4.7-12.6000006-5.3-15.0000002-4.2-16.4000003 2-2.7000003 3.1-3.2000003 6.3000001-3.2000003 5.8000001 0 6.9000001.9000003 9.3000001 7 5.7000001 14.7000006 6.7000001 16.4000006 11.4000002 18.8000007l4.5 2.1999993-.3 6.5-.3 6.4000009 3.7000001-2.2c6.7000001-4.2000009 14.6000002-7.4000002 22.6000008-9.2000009l2.9-.5999993-4.700001-4.8000001-4.5999996-4.7 1.5000001-4.6000001 1.6-4.6000001-4.4000001-11.0000001c-4.2000001-10.40000018-4.4000001-11.2000003-2.9-13.40000023 2.3-3.60000005 4.3-4.80000007 7.8000001-4.80000007 3.1000005 0 3.2000005.3 9.4000005 14.1000002 3.9 8.7000001 6.6 13.5000002 7.1 12.7000002.4-.7 3.3-7.0000001 6.4-14.0000002l5.7-12.8000002h3.8c3.1 0 4.4.60000001 6.5 3.10000005 1.4 1.80000002 2.4 3.70000005 2.2 4.30000006-.3.59999989-2.3 5.70000009-4.6 11.20000019l-4.1 10.1000001 1.6 4.7000001 1.6 4.5999995-5.4 5c-4.5 4.2000007-5 5-3.1 5 4.1 0 17.8 4.9000008 23.7 8.5 3.2 1.9000009 5.9 3.5 6 3.5 0 0 .1-3 .1-6.6999992v-6.8000008l4.2-2c3.9-1.8999994 4.4-2.6999994 8.800001-13.1999995 3.3-7.6000001 5.3-11.3000005 6.6-11.6000002 5.5-1.5 12.8 2.6 11.3 6.2000001-1.4 3.5999996-10.2 27.0999996-10.1 27.0999996s6.7-2.5 14.7-5.5c13.4-5.0999994 14.6-5.2999994 16.7-4 2.1 1.4000007 2.6 2.6000007 2.6 7 0 5-.3 5.2000008-10.5 9.5-12 4.900001-12.3 5.200001-14.9 10.200001l-2 3.799999-6.8-.1999989c-4.4-.2-6.7.1-6.3.6999989.3.6000011 2 3.3000012 3.7 6 3.1 4.9000013 6.2 11.9000014 7.2 16 .2 1.1000015.6 2.7000015.8 3.5.2.800002.4 2.200002.4 3 .1.800002 2-.5 4.9-3.2999985l4.8-4.7000015 4.6 1.5 4.5 1.6000015 11.6-4.6000015c11.3-4.5 11.6-4.5999987 14.2-2.8999986 2.7 1.8 5.3 6 4.9 8.2000001-.1.6-.2 1.5999995-.3 2.1000005 0 .4-2.9 2.099998-6.3 3.599998-3.5 1.600002-10.1 4.600002-14.8 6.700002l-8.4 3.9 10.9 5c15.4 7 18 8.5 18.3 10.899998.4 2.600002-1.9 6.400002-5.3 8.600002-2.2 1.5-2.8 1.5-5.7.2-1.8-.800002-7-3-11.5-4.800002-8.2-3.199998-8.3-3.199998-12.9-1.599998l-4.7 1.599998-3.9-4.099998c-2.2-2.3-4-4-4.2-3.8s-.9 2.7-1.6 5.399998c-1.5 5.800002-4.4 12.400002-7.7 17.700002-1.3 2.1-2.3 4-2.3 4.4 0 .3 1.7.5 3.8.399998 8.3-.399998 8.7-.199998 10.9 4.400002 2 4.099998 2.7 4.599998 12.5 8.599998 5.6 2.400003 10.9 4.900003 11.7 5.5 2 1.900003 1.8 9-.4 11.5-1 1.100003-2.4 2-3.1 2-1.3 0-24.7-8.599997-27.6-10.099997-2.7-1.5-2.3.3 3.2 14.599997 2.7 7.200003 5 13.5 5 14.200003 0 .7-.9 2.1-2 3.1-1.9 1.8-4.1 2-10.7 1.3-.6 0-3.2-5.2-5.8-11.4-4.500001-10.700003-5.000001-11.5-9.100001-13.700003-4.6-2.399997-4.7-2.699997-4.5-9.699997.1-4.6-.7-4.800003-5.9-1.300003-3.4 2.300003-14.6 6.700003-19.3 7.5l-3.9.800003 4.3 4.3 4.2 4.3-1.2 5.3c-1.4 5.6-1.1 6.6 6.3 24 1.5 3.4 1.4 3.7-.5 6.2-2.8 3.599997-6.9 5.5-9.5 4.599997zm-21.900001-75.099998c0-4.1-.399999-6.9-1-6.9-.5 0-3.299999-1.1-6.099999-2.4l-5.2000006-2.4-4.6 4.7c-2.5000001 2.6-4.6000001 5-4.6000001 5.3 0 2.1 19.4999997 10.5 20.9999997 9.1.200001-.2.5-3.5.5-7.4zm23.600001 5.6c4.7-1.7 12.9-6.2 12.9-7.2 0-.3-2.2-2.8-5-5.6-3.6-3.6-5.3-4.7-6.2-4-.7.6-3.4 1.8-6 2.8l-4.8 1.8v7.3c0 8.2-.2 8.1 9.1 4.9zm-48.0000007-32c-1.2000003-2.6-2.1000001-5.4-2.1000001-6.1 0-1.1-1.7-1.4-7.1000002-1.4h-7l.4 2.9c.9 5.8 3.2000001 11.4 6.7000001 16.8l1.5 2.3 4.8000001-4.9 4.9000001-4.8zm75.8000007 7.7c2.5-5.2 3.6-8.2 4.6-13.5.4-1.6-.3-1.8-7.1-1.5l-7.5.3-2.3 5.5-2.3 5.5 5 5.2c2.8 2.9 5.4 5 5.9 4.7s2.1-3.1 3.7-6.2zm-39.7-7.2c5.9-1.7 11.1-8.4 11.2-14.5.1-8-5.9-15.000001-13.5-16.0000005-15.7-2-24.2000006 16.5000005-12.6 27.3000005 4 3.8 8.9 4.8 14.9 3.2zm-37.3000008-26.7c1.2000001-2.700001 2.4000001-5.4000005 2.9000001-6.2000006.6-1-.3-2.7-2.7000001-5.4-5.9-6.4000001-6.4000001-6.4000001-9.9000001.1-3.3000001 6.3000001-5.6000001 13.7000006-4.7000001 15.2000006.3.6 3.3000001 1 6.5000001 1h5.9000001zm81.5000008 2c-1.9-7.8000007-7.3-19.3000007-9.2-19.3000007-.4 0-2.9 2.2-5.5 4.8000001l-4.8 4.8 1.9 4.4999996c1.1 2.4 2.2 5.100001 2.5 6.000001.4 1.3 2.1 1.7 8.1 1.8l7.7.2zm-21.1-31.1000009c-3.9-3-15-7.2000001-18.7-7.2000001-2 0-2.1.5-2.1 6.6000001v6.6000001l6 2.7999998 6 2.7000003 5.3-5.1000001c4.8-4.7000001 5.1-5.2000001 3.5-6.4000001zm-41 8.6999999c2.3-1.1999998 4.3-2.0999998 4.5-2 1.6.9000002 2.1-1 2-6.8999999l-.2-7.1000001-3 .5c-4.3.7-9.3000006 2.7-14.4000006 5.5l-4.2000001 2.5 4.7000001 4.8000002c2.6 2.6 5.1 4.8000001 5.6 4.8000001.4000001 0 2.6999996-1 5.0000006-2.1000003z" fill="#e16426" transform="matrix(1 0 0 -1 0 231.999999)"/></svg>

<?xml version="1.0" encoding="UTF-8"?>
<svg width="233px" height="232px" viewBox="0 0 233 232" version="1.1" xmlns="http://www.w3.org/2000/svg" xmlns:xlink="http://www.w3.org/1999/xlink">
    <!-- Generator: Sketch 56.2 (81672) - https://sketch.com -->
    <title>knex</title>
    <desc>Created with Sketch.</desc>
    <g id="Page-1" stroke="none" stroke-width="1" fill="none" fill-rule="evenodd">
        <g id="knex" fill="#E16426" fill-rule="nonzero">
            <g id="svg_1" transform="translate(116.250002, 116.349998) scale(-1, 1) rotate(-180.000000) translate(-116.250002, -116.349998) translate(0.000000, 0.699997)">
                <path d="M130.400002,231 C129.200002,230.5 127.500002,228.300003 126.600002,226 C125.700002,223.800003 122.900002,217.400003 120.300002,212 C114.900002,200.400003 115.900002,199.900003 108.100002,217.5 C105.100002,224.100003 102.600002,229.600003 102.500002,229.800003 C102.400002,230 101.100002,230.300003 99.7000015,230.600003 C96.7000014,231.100003 90.0000013,225.900003 90.0000013,223.100003 C90.0000013,222.200003 92.0000014,216.800003 94.4000014,211 L98.7000015,200.400003 L97.2000014,195.700003 L95.7000014,190.900003 L99.9000015,186.600003 L104.100002,182.300003 L97.9000015,180.600003 C91.6000014,178.900003 83.5000012,175.200003 78.8000012,171.800003 L76.0000011,169.900003 L76.0000011,176.300003 L76.0000011,182.600003 L71.6000011,184.800003 C67.500001,186.900003 67.000001,187.600003 62.5000009,198.400003 C59.5000009,205.600003 57.0000008,210 56.0000008,210.300003 C53.2000008,211 46.9000007,210.200003 45.4000007,208.900003 C43.3000006,207.100003 43.6000006,205.5 49.1000007,190.700003 C52.0000008,183.100003 54.1000008,176.700003 53.8000008,176.5 C53.6000008,176.300003 47.4000007,178.300003 40.0000006,181 C32.7000005,183.800003 25.9000004,186 25.0000004,186 C21.7000003,186 19.4000003,180.900003 20.4000003,175.600003 C21.0000003,172.700003 21.8000003,172.100003 32.3000005,167.700002 C43.1000006,163.100002 43.8000007,162.700002 45.8000007,158.400002 L48.0000007,154 L54.0000008,154 L60.0000009,154 L56.6000008,147.5 C53.6000008,142 52.3000008,138.400002 49.3000007,128.100002 C49.1000007,127.100002 47.6000007,127.900002 44.7000007,130.800002 L40.4000006,135 L35.7000005,133.400002 L31.1000005,131.800002 L19.6000003,136.5 L8.20000012,141.200002 L5.10000008,138.900002 C2.00000003,136.600002 0.100000001,132.700002 0.70000001,129.900002 C1.00000001,128.900002 6.5000001,125.800002 15.1000002,121.900002 C22.7000003,118.5 29.0000004,115.400002 29.0000004,115.100002 C29.0000004,114.800002 23.4000003,112.100002 16.7000002,109.100002 C10.0000001,106.100002 3.50000005,103.100002 2.30000003,102.300002 C-1.60000002,100 -0.100000001,93.7000014 5.00000007,90.6000014 C7.80000012,89 8.10000012,89 19.1000003,93.5 L30.3000005,98 L35.4000005,96.5 L40.5000006,95 L44.7000007,99.6000015 L48.9000007,104.300002 L49.9000007,99.9000015 C51.5000008,93.7000014 54.9000008,85.3000013 58.1000009,79.9000012 L60.8000009,75.3000011 L55.0000008,75.7000011 L49.2000007,76.1000011 L46.4000007,71 C44.9000007,68.300001 43.3000006,66 42.7000006,66 C42.2000006,66 40.4000006,65.300001 38.7000006,64.5 C36.9000005,63.7000009 32.4000005,61.7000009 28.5000004,60.1000009 C22.1000003,57.4000009 21.5000003,56.9000008 21.0000003,53.8000008 C20.7000003,52 20.8000003,49.3000007 21.3000003,47.7000007 C23.0000003,42.6000006 24.6000004,42.6000006 40.1000006,48.4000007 C48.0000007,51.4000008 54.6000008,53.7000008 54.7000008,53.6000008 C54.9000008,53.5 52.5000008,46.7000007 49.4000007,38.6000006 C44.7000007,26 44.1000007,23.6000004 45.2000007,22.2000003 C47.2000007,19.5 48.3000007,19 51.5000008,19 C57.3000009,19 58.4000009,19.9000003 60.8000009,26 C66.500001,40.7000006 67.500001,42.4000006 72.2000011,44.8000007 L76.7000011,47 L76.4000011,53.5 L76.1000011,59.9000009 L79.8000012,57.7000009 C86.5000013,53.5 94.4000014,50.3000007 102.400002,48.5 L105.300002,47.9000007 L100.600001,43.1000006 L96.0000014,38.4000006 L97.5000015,33.8000005 L99.1000015,29.2000004 L94.7000014,18.2000003 C90.5000013,7.80000012 90.3000013,7 91.8000014,4.80000007 C94.1000014,1.20000002 96.1000014,0 99.6000015,0 C102.700002,0 102.800002,0.300000004 109.000002,14.1000002 C112.900002,22.8000003 115.600002,27.6000004 116.100002,26.8000004 C116.500002,26.1000004 119.400002,19.8000003 122.500002,12.8000002 L128.200002,0 L132.000002,0 C135.100002,0 136.400002,0.600000009 138.500002,3.10000005 C139.900002,4.90000007 140.900002,6.8000001 140.700002,7.40000011 C140.400002,8 138.400002,13.1000002 136.100002,18.6000003 L132.000002,28.7000004 L133.600002,33.4000005 L135.200002,38 L129.800002,43 C125.300002,47.2000007 124.800002,48 126.700002,48 C130.800002,48 144.500002,52.9000008 150.400002,56.5 C153.600002,58.4000009 156.300002,60 156.400002,60 C156.400002,60 156.500002,57 156.500002,53.3000008 L156.500002,46.5 L160.700002,44.5 C164.600002,42.6000006 165.100002,41.8000006 169.500003,31.3000005 C172.800003,23.7000004 174.800003,20 176.100003,19.7000003 C181.600003,18.2000003 188.900003,22.3000003 187.400003,25.9000004 C186.000003,29.5 177.200003,53 177.300003,53 C177.400003,53 184.000003,50.5 192.000003,47.5 C205.400003,42.4000006 206.600003,42.2000006 208.700003,43.5 C210.800003,44.9000007 211.300003,46.1000007 211.300003,50.5 C211.300003,55.5 211.000003,55.7000008 200.800003,60 C188.800003,64.900001 188.500003,65.200001 185.900003,70.200001 L183.900003,74 L177.100003,73.8000011 C172.700003,73.6000011 170.400003,73.9000011 170.800003,74.5 C171.100003,75.1000011 172.800003,77.8000012 174.500003,80.5 C177.600003,85.4000013 180.700003,92.4000014 181.700003,96.5 C181.900003,97.6000015 182.300003,99.2000015 182.500003,100 C182.700003,100.800002 182.900003,102.200002 182.900003,103 C183.000003,103.800002 184.900003,102.5 187.800003,99.7000015 L192.600003,95 L197.200003,96.5 L201.700003,98.1000015 L213.300003,93.5 C224.600003,89 224.900003,88.9000013 227.500003,90.6000014 C230.200003,92.4000014 232.800003,96.6000014 232.400003,98.8000015 C232.300003,99.4000015 232.200003,100.400001 232.100003,100.900002 C232.100003,101.300002 229.200003,103 225.800003,104.5 C222.300003,106.100002 215.700003,109.100002 211.000003,111.200002 L202.600003,115.100002 L213.500003,120.100002 C228.900003,127.100002 231.500003,128.600002 231.800003,131 C232.200003,133.600002 229.900003,137.400002 226.500003,139.600002 C224.300003,141.100002 223.700003,141.100002 220.800003,139.800002 C219.000003,139 213.800003,136.800002 209.300003,135 C201.100003,131.800002 201.000003,131.800002 196.400003,133.400002 L191.700003,135 L187.800003,130.900002 C185.600003,128.600002 183.800003,126.900002 183.600003,127.100002 C183.400003,127.300002 182.700003,129.800002 182.000003,132.5 C180.500003,138.300002 177.600003,144.900002 174.300003,150.200002 C173.000003,152.300002 172.000003,154.200002 172.000003,154.600002 C172.000003,154.900002 173.700003,155.100002 175.800003,155 C184.100003,154.600002 184.500003,154.800002 186.700003,159.400002 C188.700003,163.5 189.400003,164 199.200003,168 C204.800003,170.400003 210.100003,172.900003 210.900003,173.5 C212.900003,175.400003 212.700003,182.5 210.500003,185 C209.500003,186.100003 208.100003,187 207.400003,187 C206.100003,187 182.700003,178.400003 179.800003,176.900003 C177.100003,175.400003 177.500003,177.200003 183.000003,191.5 C185.700003,198.700003 188.000003,205 188.000003,205.700003 C188.000003,206.400003 187.100003,207.800003 186.000003,208.800003 C184.100003,210.600003 181.900003,210.800003 175.300003,210.100003 C174.700003,210.100003 172.100003,204.900003 169.500003,198.700003 C165.000002,188 164.500002,187.200003 160.400002,185 C155.800002,182.600003 155.700002,182.300003 155.900002,175.300003 C156.000002,170.700003 155.200002,170.5 150.000002,174 C146.600002,176.300003 135.400002,180.700003 130.700002,181.5 L126.800002,182.300003 L131.100002,186.600003 L135.300002,190.900003 L134.100002,196.200003 C132.700002,201.800003 133.000002,202.800003 140.400002,220.200003 C141.900002,223.600003 141.800002,223.900003 139.900002,226.400003 C137.100002,230 133.000002,231.900003 130.400002,231 Z M108.500001,155.900002 C108.500001,151.800002 108.100002,149.000002 107.500001,149.000002 C107.000001,149.000002 104.200002,147.900002 101.400002,146.600002 L96.2000014,144.200002 L91.6000014,148.900002 C89.1000013,151.500002 87.0000013,153.900002 87.0000013,154.200002 C87.0000013,156.300002 106.500001,164.700002 108.000001,163.300002 C108.200002,163.100002 108.500001,159.800002 108.500001,155.900002 Z M132.100002,161.500002 C136.800002,159.800002 145.000002,155.300002 145.000002,154.300002 C145.000002,154.000002 142.800002,151.500002 140.000002,148.700002 C136.400002,145.100002 134.700002,144.000002 133.800002,144.700002 C133.100002,145.300002 130.400002,146.500002 127.800002,147.500002 L123.000002,149.300002 L123.000002,156.600002 C123.000002,164.800002 122.800002,164.700002 132.100002,161.500002 Z M84.1000013,129.500002 C82.900001,126.900002 82.0000012,124.100002 82.0000012,123.400002 C82.0000012,122.300002 80.3000012,122.000002 74.900001,122.000002 L67.900001,122.000002 L68.300001,124.900002 C69.200001,130.700002 71.5000011,136.300002 75.0000011,141.700002 L76.5000011,144.000002 L81.3000012,139.100002 L86.2000013,134.300002 L84.1000013,129.500002 Z M159.900002,137.200002 C162.400002,132.000002 163.500002,129.000002 164.500002,123.700002 C164.900002,122.100002 164.200002,121.900002 157.400002,122.200002 L149.900002,122.500002 L147.600002,128.000002 L145.300002,133.500002 L150.300002,138.700002 C153.100002,141.600002 155.700002,143.700002 156.200002,143.400002 C156.700002,143.100002 158.300002,140.300002 159.900002,137.200002 Z M120.200002,130.000002 C126.100002,128.300002 131.300002,121.600002 131.400002,115.500002 C131.500002,107.500002 125.500002,100.500001 117.900002,99.5000015 C102.200002,97.5000015 93.7000014,116.000002 105.300002,126.800002 C109.300002,130.600002 114.200002,131.600002 120.200002,130.000002 Z M82.9000012,103.300002 C84.1000013,100.600001 85.3000013,97.9000015 85.8000013,97.1000014 C86.4000013,96.1000014 85.5000013,94.4000014 83.1000012,91.7000014 C77.2000012,85.3000013 76.7000011,85.3000013 73.2000011,91.8000014 C69.900001,98.1000015 67.600001,105.500002 68.500001,107.000002 C68.800001,107.600002 71.8000011,108.000002 75.0000011,108.000002 L80.9000012,108.000002 L82.9000012,103.300002 Z M164.400002,105.300002 C162.500002,97.5000013 157.100002,86.0000013 155.200002,86.0000013 C154.800002,86.0000013 152.300002,88.2000013 149.700002,90.8000014 L144.900002,95.6000014 L146.800002,100.100001 C147.900002,102.500001 149.000002,105.200002 149.300002,106.100002 C149.700002,107.400002 151.400002,107.800002 157.400002,107.900002 L165.100002,108.100002 L164.400002,105.300002 Z M143.300002,74.2000011 C139.400002,71.2000011 128.300002,67.000001 124.600002,67.000001 C122.600002,67.000001 122.500002,67.500001 122.500002,73.6000011 L122.500002,80.2000012 L128.500002,83.000001 L134.500002,85.7000013 L139.800002,80.6000012 C144.600002,75.9000011 144.900002,75.4000011 143.300002,74.2000011 Z M102.300002,82.900001 C104.600002,81.7000012 106.600002,80.8000012 106.800002,80.900001 C108.400002,81.8000012 108.900002,79.900001 108.800002,74.0000011 L108.600002,66.900001 L105.600002,67.400001 C101.300002,68.100001 96.3000014,70.100001 91.2000014,72.900001 L87.0000013,75.400001 L91.7000014,80.2000012 C94.3000014,82.8000012 96.8000014,85.0000013 97.3000014,85.0000013 C97.7000015,85.0000013 100.000001,84.0000013 102.300002,82.900001 Z" id="svg_2"></path>
            </g>
        </g>
    </g>
</svg>
